components/player/src/assets/refresh.svg

<svg viewBox="0 0 1024 1024" fill="currentColor" xmlns="http://www.w3.org/2000/svg"><path d="M512 166.4c-70.4 0-134.4 19.2-192 57.6l-25.6-38.4c-12.8-19.2-38.4-12.8-44.8 6.4l-44.8 140.8c0 12.8 12.8 32 25.6 32l147.2-6.4c19.2 0 32-25.6 19.2-38.4l-32-38.4v-6.4c38.4-32 96-44.8 147.2-44.8 153.6 0 281.6 128 281.6 281.6S665.6 793.6 512 793.6 230.4 665.6 230.4 512c0-19.2-12.8-32-32-32s-32 12.8-32 32c0 192 153.6 345.6 345.6 345.6S857.6 704 857.6 512 704 166.4 512 166.4z"/></svg>

<?xml version="1.0" standalone="no"?><!DOCTYPE svg PUBLIC "-//W3C//DTD SVG 1.1//EN" "http://www.w3.org/Graphics/SVG/1.1/DTD/svg11.dtd"><svg class="icon" width="19px" height="19.00px" viewBox="0 0 1024 1024" fill="currentColor" version="1.1" xmlns="http://www.w3.org/2000/svg"><path fill="#d81e06" d="M512 166.4c-70.4 0-134.4 19.2-192 57.6L294.4 185.6C281.6 166.4 256 172.8 249.6 192L204.8 332.8C204.8 345.6 217.6 364.8 230.4 364.8l147.2-6.4c19.2 0 32-25.6 19.2-38.4L364.8 281.6l0 0 0-6.4C403.2 243.2 460.8 230.4 512 230.4c153.6 0 281.6 128 281.6 281.6s-128 281.6-281.6 281.6-281.6-128-281.6-281.6c0-19.2-12.8-32-32-32S166.4 492.8 166.4 512c0 192 153.6 345.6 345.6 345.6S857.6 704 857.6 512 704 166.4 512 166.4z" /></svg>
